icons/file-request.svg

<svg width="24" height="24" viewBox="0 0 24 24" fill="none" xmlns="http://www.w3.org/2000/svg">
<path fill-rule="evenodd" clip-rule="evenodd" d="M20 6C20 3.79086 18.2091 2 16 2H9.5C9.23478 2 8.98043 2.10536 8.79289 2.29289L4.29289 6.79289C4.10536 6.98043 4 7.23478 4 7.5V18C4 20.2091 5.79086 22 8 22H9.5C10.0523 22 10.5 21.5523 10.5 21C10.5 20.4477 10.0523 20 9.5 20H8C6.89543 20 6 19.1046 6 18V10H10C11.1046 10 12 9.10457 12 8V4H16C17.1046 4 18 4.89543 18 6V17C18 17.5523 18.4477 18 19 18C19.5523 18 20 17.5523 20 17V6ZM10 4H9.91421L6 7.91421V8H10V4Z" fill="#9AA1B4"/>
<path d="M10.2929 14.2929C10.0069 14.5789 9.92134 15.009 10.0761 15.3827C10.2309 15.7564 10.5955 16 11 16H12V18C12 20.2091 13.7909 22 16 22H19C19.5523 22 20 21.5523 20 21C20 20.4477 19.5523 20 19 20H16C14.8954 20 14 19.1046 14 18V16H15C15.4045 16 15.7691 15.7564 15.9239 15.3827C16.0787 15.009 15.9931 14.5789 15.7071 14.2929L13.7071 12.2929C13.5196 12.1054 13.2652 12 13 12C12.7348 12 12.4804 12.1054 12.2929 12.2929L10.2929 14.2929Z" fill="#9AA1B4"/>
</svg>

<?xml version="1.0" encoding="utf-8"?>
<!-- Generator: Adobe Illustrator 22.1.0, SVG Export Plug-In . SVG Version: 6.00 Build 0)  -->
<svg version="1.1" id="Layer_1" xmlns="http://www.w3.org/2000/svg" xmlns:xlink="http://www.w3.org/1999/xlink" x="0px" y="0px"
	 viewBox="0 0 24 24" style="enable-background:new 0 0 24 24;" xml:space="preserve">
<style type="text/css">
	.st0{fill:#9AA1B4;}
</style>
<path class="st0" d="M16,2H9.5C9.2,2,9,2.1,8.8,2.3L4.3,6.8C4.1,7,4,7.2,4,7.5V18c0,2.2,1.8,4,4,4h1.5c0.6,0,1-0.4,1-1s-0.4-1-1-1H8
	c-1.1,0-2-0.9-2-2v-8h4c1.1,0,2-0.9,2-2V4h4c1.1,0,2,0.9,2,2v11c0,0.6,0.4,1,1,1s1-0.4,1-1V6C20,3.8,18.2,2,16,2z M10,8H6V7.9L9.9,4
	H10V8z"/>
<path class="st0" d="M10.3,14.3c-0.3,0.3-0.4,0.7-0.2,1.1c0.2,0.4,0.5,0.6,0.9,0.6h1v2c0,2.2,1.8,4,4,4h3c0.6,0,1-0.4,1-1
	s-0.4-1-1-1h-3c-1.1,0-2-0.9-2-2v-2h1c0.4,0,0.8-0.2,0.9-0.6s0.1-0.8-0.2-1.1l-2-2C13.5,12.1,13.3,12,13,12s-0.5,0.1-0.7,0.3
	L10.3,14.3z"/>
</svg>
